X:1
T:Title
%%score [ ( 1 2 ) ( 3 4 ) ] { ( 5 6 ) | ( 7 8 ) }
L:1/8
Q:1/4=120
M:4/4
K:D
V:1 treble nm="Midi_74"
V:2 treble 
V:3 bass nm="Midi_74"
V:4 bass 
V:5 treble nm="Org."
V:6 treble 
V:7 bass 
V:8 bass 
V:1
 F8 | E4 G4 | F8 || A8 | A4 d4 | c4 B4 | A8 || A8 | G4 E4 | F8 || d8 | %11
 d4"^William Henry Havergal\n(1793-1870)" G4 | F4 E4 | D8 |] %14
V:2
 D8 | E4 E4 | D8 || (E6 ^E2) | F4 F4 | E4 D4 | C8 || D8 | E4 B,4 | C8 || D8 | D4 E4 | D4 C4 | D8 |] %14
V:3
 A,8 | A,4 C4 | D8 || A,8 | F,4 (F,2 ^G,2) | A,4 ^G,4 | A,8 || A,8 | B,4 B,4 | ^A,8 || %10
 (=A,6 ^A,2) | B,4 B,4 | A,4 G,4 | F,8 |] %14
V:4
 D,8 | C,4 A,,4 | B,,8 || C,8 | D,4 B,,4 | E,4 E,4 | A,,8 || F,8 | E,4 G,4 | F,8 || F,8 | G,4 G,4 | %12
 A,4 A,,4 | D,8 |] %14
V:5
 [A,F]8 | E4 G4 | F8 || A8 | A4 d4 | c4 [^GB]4 | A8 || A8 | G4 E4 | F8 || [Dd]8 | d4 G4 | F4 E4 | %13
 D8 |] %14
V:6
 D8 | A,4 [CE]4 | D8 || E6 ^E2 | [DF]4 [FB]4 | [EA]4 E2 D2 | C8 || [A,D]8 | [B,E]4 B,4 | ^A,8 || %10
 =A6 ^A2 | [DB]4 E4 | D4 C4 | D8 |] %14
V:7
 x8 | x8 | x8 || x8 | x8 | x8 | x8 || x8 | x8 | x8 || x8 | x8 | x4 A,2 G,2 | x8 |] %14
V:8
 D,8 | C,4 A,,4 | B,,8 || [C,A,]8 | D,4 B,,4 | E,4 E,4 | A,,8 || F,8 | E,4 G,4 | F,8 || F,8 | %11
 G,4 G,4 | A,4 A,,4 | [D,F,]8 |] %14

